X:579
T: IM SOMMER DU SCHOENE SOMMERZEIT
N: E1888
O: Europa, Mitteleuropa, Deutschland, Erfurt, Stotternheim
R: Kinder - Lied, Spiel, Reigen
M: 2/4
L: 1/8
K: G
G | d2BG | d2B
G | eeee | d2z
d | dccc | BBB
B | AAAA | d2z
d | dccc | BBB
B | AAdd | G2z

@@@ Tune index: 5263
